public/style/workarea/images/icons/exe-science-icon-green.svg

<svg fill="none" height="19" viewBox="0 0 19 19" width="19" xmlns="http://www.w3.org/2000/svg" xmlns:xlink="http://www.w3.org/1999/xlink"><clipPath id="a"><path d="m.900879.093018h18v18h-18z"/></clipPath><g clip-path="url(#a)"><path d="m15.9539 13.6504-4.2419-7.27187v-3.92648h.8301c.2202 0 .4313-.08746.587-.24313.1557-.15568.2431-.36683.2431-.58699s-.0874-.43131-.2431-.58698c-.1557-.155682-.3668-.243141-.587-.243141h-6.64096c-.22016 0-.43131.087459-.58698.243141-.15568.15567-.24314.36682-.24314.58698s.08746.43131.24314.58699c.15567.15567.36682.24313.58698.24313h.83012v3.92648l-4.24192 7.27187c-.22036.3783-.3371.808-.33845 1.2458s.11274.8682.33077 1.2479c.21803.3796.53228.6951.9111.9146.37881.2195.80879.3352 1.2466.3355h9.13134c.4378-.0003.8678-.116 1.2466-.3355s.6931-.535.9111-.9146c.218-.3797.3321-.8101.3308-1.2479-.0014-.4378-.1181-.8675-.3385-1.2458zm-7.67861-6.64098c.07322-.12327.11326-.26341.11622-.40676v-4.15061h1.66029v4.15061c.0015.14618.0416.28936.1162.41506l.7139 1.24519h-3.32051zm6.24251 8.30118c-.0724.1255-.1764.2298-.3017.3026-.1252.0729-.2673.1116-.4122.1125h-9.13134c-.14487-.0009-.28698-.0396-.41223-.1125-.12524-.0728-.22924-.1771-.30167-.3026-.07286-.1262-.11122-.2693-.11122-.415s.03836-.2889.11122-.4151l2.63148-4.55735h5.27126l2.6564 4.56565c.0729.1262.1112.2694.1112.4151s-.0383.2888-.1112.415zm-6.95641-3.7272c-.16419 0-.32468.0487-.4612.1399-.13651.0912-.24291.2209-.30574.3725-.06283.1517-.07927.3186-.04724.4797.03203.161.1111.3089.22719.425s.26401.1952.42504.2272c.16102.032.32793.0156.47962-.0473.15168-.0628.28133-.1692.37255-.3057.09121-.1365.1399-.297.1399-.4612 0-.2201-.08746-.4313-.24314-.587-.15568-.1556-.36682-.2431-.58698-.2431zm3.32051.8301c-.1642 0-.3247.0487-.4612.1399s-.2429.2209-.3058.3726c-.0628.1517-.0792.3186-.0472.4796s.1111.3089.2272.425.264.1952.425.2272c.1611.032.328.0156.4796-.0472.1517-.0629.2814-.1693.3726-.3058s.1399-.297.1399-.4612c0-.2201-.0875-.4313-.2431-.5869-.1557-.1557-.3669-.2432-.587-.2432z" fill="#0ba0a0"/></g></svg>

<svg width="19" height="19" viewBox="0 0 19 19" fill="none" xmlns="http://www.w3.org/2000/svg">
<g clip-path="url(#clip0_42_205)">
<path d="M15.9539 13.6504L11.712 6.37853V2.45205H12.5421C12.7623 2.45205 12.9734 2.36459 13.1291 2.20892C13.2848 2.05324 13.3722 1.84209 13.3722 1.62193C13.3722 1.40177 13.2848 1.19062 13.1291 1.03495C12.9734 0.879268 12.7623 0.791809 12.5421 0.791809H5.90114C5.68098 0.791809 5.46983 0.879268 5.31416 1.03495C5.15848 1.19062 5.07102 1.40177 5.07102 1.62193C5.07102 1.84209 5.15848 2.05324 5.31416 2.20892C5.46983 2.36459 5.68098 2.45205 5.90114 2.45205H6.73126V6.37853L2.48934 13.6504C2.26898 14.0287 2.15224 14.4584 2.15089 14.8962C2.14954 15.334 2.26363 15.7644 2.48166 16.1441C2.69969 16.5237 3.01394 16.8392 3.39276 17.0587C3.77157 17.2782 4.20155 17.3939 4.63936 17.3942H13.7707C14.2085 17.3939 14.6385 17.2782 15.0173 17.0587C15.3961 16.8392 15.7104 16.5237 15.9284 16.1441C16.1464 15.7644 16.2605 15.334 16.2592 14.8962C16.2578 14.4584 16.1411 14.0287 15.9207 13.6504H15.9539ZM8.27529 7.00942C8.34851 6.88615 8.38855 6.74601 8.39151 6.60266V2.45205H10.0518V6.60266C10.0533 6.74884 10.0934 6.89202 10.168 7.01772L10.8819 8.26291H7.56139L8.27529 7.00942ZM14.5178 15.3106C14.4454 15.4361 14.3414 15.5404 14.2161 15.6132C14.0909 15.6861 13.9488 15.7248 13.8039 15.7257H4.67256C4.52769 15.7248 4.38558 15.6861 4.26033 15.6132C4.13509 15.5404 4.03109 15.4361 3.95866 15.3106C3.8858 15.1844 3.84744 15.0413 3.84744 14.8956C3.84744 14.7499 3.8858 14.6067 3.95866 14.4805L6.59014 9.92315H11.8614L14.5178 14.4888C14.5907 14.615 14.629 14.7582 14.629 14.9039C14.629 15.0496 14.5907 15.1927 14.5178 15.3189V15.3106ZM7.56139 11.5834C7.3972 11.5834 7.23671 11.6321 7.10019 11.7233C6.96368 11.8145 6.85728 11.9442 6.79445 12.0958C6.73162 12.2475 6.71518 12.4144 6.74721 12.5755C6.77924 12.7365 6.85831 12.8844 6.9744 13.0005C7.09049 13.1166 7.23841 13.1957 7.39944 13.2277C7.56046 13.2597 7.72737 13.2433 7.87906 13.1804C8.03074 13.1176 8.16039 13.0112 8.25161 12.8747C8.34282 12.7382 8.39151 12.5777 8.39151 12.4135C8.39151 12.1934 8.30405 11.9822 8.14837 11.8265C7.99269 11.6709 7.78155 11.5834 7.56139 11.5834ZM10.8819 12.4135C10.7177 12.4135 10.5572 12.4622 10.4207 12.5534C10.2842 12.6446 10.1778 12.7743 10.1149 12.926C10.0521 13.0777 10.0357 13.2446 10.0677 13.4056C10.0997 13.5666 10.1788 13.7145 10.2949 13.8306C10.411 13.9467 10.5589 14.0258 10.7199 14.0578C10.881 14.0898 11.0479 14.0734 11.1995 14.0106C11.3512 13.9477 11.4809 13.8413 11.5721 13.7048C11.6633 13.5683 11.712 13.4078 11.712 13.2436C11.712 13.0235 11.6245 12.8123 11.4689 12.6567C11.3132 12.501 11.102 12.4135 10.8819 12.4135Z" fill="#0BA0A0"/>
</g>
<defs>
<clipPath id="clip0_42_205">
<rect width="18" height="18" fill="white" transform="translate(0.900879 0.0930176)"/>
</clipPath>
</defs>
</svg>
